src/lib/packages/icons/src/assets/filled/face-tired.svg

<svg width="24" height="24" viewBox="0 0 24 24" fill="none" xmlns="http://www.w3.org/2000/svg">
<path d="M12 2C6.48 2 2 6.48 2 12C2 17.52 6.48 22 12 22C17.52 22 22 17.52 22 12C22 6.48 17.52 2 12 2ZM7.33002 11.34C7.14002 10.97 7.28997 10.52 7.65997 10.33L8.32001 10L7.65997 9.67C7.28997 9.48 7.14001 9.03 7.32001 8.66C7.51001 8.29 7.96002 8.14001 8.33002 8.32001L10.33 9.32001C10.58 9.45001 10.75 9.71001 10.75 9.99001C10.75 10.27 10.59 10.53 10.34 10.66L8.34003 11.66C8.23003 11.71 8.12001 11.74 8.01001 11.74C7.73001 11.74 7.47003 11.59 7.34003 11.33L7.33002 11.34ZM15.27 17.96C13.09 17.09 10.91 17.09 8.71997 17.96C8.33997 18.11 7.91001 17.81 8.01001 17.41C8.43001 15.59 10.05 14.24 12 14.24C13.95 14.24 15.57 15.59 15.99 17.41C16.08 17.81 15.66 18.12 15.28 17.96H15.27ZM16.33 10.33C16.7 10.52 16.85 10.97 16.67 11.34C16.54 11.6 16.27 11.75 16 11.75C15.89 11.75 15.77 11.72 15.67 11.67L13.67 10.67C13.42 10.54 13.25 10.28 13.25 10C13.25 9.72 13.41 9.46 13.67 9.33L15.67 8.33C16.04 8.14 16.49 8.3 16.68 8.67C16.87 9.04 16.72 9.48999 16.34 9.67999L15.68 10.01L16.34 10.34L16.33 10.33Z" fill="currentColor"/>
</svg>

<svg xmlns="http://www.w3.org/2000/svg" width="24" height="24" fill="none"><path fill="currentColor" d="M12 2C6.48 2 2 6.48 2 12s4.48 10 10 10 10-4.48 10-10S17.52 2 12 2Zm-4.67 9.34a.75.75 0 0 1 .33-1.01l.66-.33-.66-.33a.763.763 0 0 1-.34-1.01c.19-.37.64-.52 1.01-.34l2 1c.25.13.42.39.42.67s-.16.54-.41.67l-2 1a.742.742 0 0 1-1-.33l-.01.01Zm7.94 6.62c-2.18-.87-4.36-.87-6.55 0-.38.15-.81-.15-.71-.55A4.087 4.087 0 0 1 12 14.24c1.95 0 3.57 1.35 3.99 3.17.09.4-.33.71-.71.55h-.01Zm1.06-7.63c.37.19.52.64.34 1.01-.13.26-.4.41-.67.41-.11 0-.23-.03-.33-.08l-2-1a.77.77 0 0 1-.42-.67c0-.28.16-.54.42-.67l2-1c.37-.19.82-.03 1.01.34.19.37.04.82-.34 1.01l-.66.33.66.33-.01-.01Z"/></svg>
